svg/u1f3cc_1f3fb.svg

<svg viewBox="0 0 128 128" xmlns="http://www.w3.org/2000/svg">
  <path id="tone" d="M41.86,22.42l-2.74-1.7l1.54-2.5c0,0,3.92,1.76,4.25,2.4c0.31,0.63-0.41,1.5-0.41,1.5 C43.54,23.49,42.73,22.95,41.86,22.42z" fill="#EDBD82"/>
  <path d="M63.39,88.82c-1.05-0.89-1.74-2.13-1.93-3.49l-1.58-11.18c1.28-3.67-0.57-14.36-9.24-14.36 c-1.11,0-2.34,0.18-3.68,0.57c-2.17,0.63-4.84,7.79-4.84,7.79l8.44,25.79c0.22,0.82,0.61,1.6,1.16,2.31c0.79,1,1.82,1.71,2.94,2.11 l21.76,11.49l3.67-7L63.39,88.82z" fill="#616161"/>
  <g>
    <polygon fill="#325599" points="78.52,100.02 78.52,100.02 78.52,100.02 "/>
    <path d="M84.35,102.44l-2.42-1.63c-0.97-0.66-2.39-0.79-3.41-0.79c-0.72,0-1.23,0.07-1.23,0.07l-4.08,6.02 l-1.88,6.63c-0.37,1.66,0.3,3.38,1.7,4.35l1.09,0.74c0.18,0.12,0.38,0.18,0.59,0.18c0.33,0,0.66-0.16,0.86-0.46l9.1-13.45 C85.04,103.55,84.9,102.81,84.35,102.44z" fill="#325599"/>
  </g>
  <path d="M41.2,62.28l-4.72,22.26c-0.77,3.61-0.91,7.33-0.42,11l2.95,22.18l7.33-0.02 c0,0,1.87-24.72,1.89-24.76l6.26-18.98l0.23-0.33c1.93-2.05,2.71-6.93,2.71-6.93L41.2,62.28z" fill="#7C7C7C"/>
  <path id="tone_2_" d="M68.27,28.42l-6.85-12.48c-0.1-0.18-0.31-0.28-0.51-0.25 c-0.21,0.03-0.37,0.19-0.42,0.39l-4.42,20.79c-0.03,0.13,0,0.27,0.07,0.38c0.07,0.11,0.19,0.19,0.32,0.22l9.04,1.84 c0.03,0.01,0.07,0.01,0.1,0.01c0.23,0,0.44-0.16,0.49-0.39l2.23-10.15C68.35,28.65,68.33,28.53,68.27,28.42z" fill="#EDBD82"/>
  <path d="M68.05,42.9l-14.42-9.42c0,0,1.56-1.01,2.49-0.96 c0.94,0.05,12.09,8.99,12.09,8.99L68.05,42.9z" enable-background="new " fill="#212121" opacity="0.4"/>
  <path d="M44.92,26.53l1.73-2.51L31.48,13.61c-0.69-0.47-1.64-0.3-2.11,0.39c-0.48,0.69-0.3,1.65,0.39,2.12 L44.92,26.53z" fill="#2E2F2F"/>
  <path d="M96.68,58.74c0,0,4.66,2.6,5.18,3.72c0.38,0.83,0.45,3.77,0.24,5.65C101.9,70,101,70.4,101,70.4 s-1.58,1.05-3.28,1.32c-1.71,0.27-1.79-1.27-1.79-1.27s-0.35-2.81-0.18-3.73s0.83-2.61,1.76-3.75c0.42-0.51-0.26-0.95-0.26-0.95 l-1.86-1.42L96.68,58.74z" fill="#2E2F2F"/>
  <path d="M47.04,114.97H39.2l-7.06,2.33c-1.71,0.67-2.84,2.32-2.85,4.15l-0.01,1.42c0,0.62,0.5,1.13,1.12,1.13 l17.51-0.02c0.71,0,1.29-0.58,1.29-1.29v-3.15C49.21,117.4,47.04,114.97,47.04,114.97z" fill="#4568AD"/>
  <path d="M96.68,58.74c0,0,4.66,2.6,5.18,3.72c0.38,0.83,0.45,3.77,0.24,5.65C101.9,70,101,70.4,101,70.4 s-1.58,1.05-3.28,1.32c-1.71,0.27-1.79-1.27-1.79-1.27s-0.35-2.81-0.18-3.73s0.83-2.61,1.76-3.75c0.42-0.51-0.26-0.95-0.26-0.95 l-1.86-1.42L96.68,58.74z" fill="#504F4F"/>
  <path id="hair" d="M82.09,13.94c0,0-0.7,0.51-1.59,0.51c-0.52,0-1.11-0.17-1.66-0.73 c-0.72-0.73-1.37-1.51-1.89-2.39s-1.1-1.78-1.98-2.3c-0.37-0.22-0.68-0.29-0.98-0.29c-0.45,0-0.88,0.16-1.43,0.21h-0.09 c-0.7,0-1.33-0.69-1.96-1.02c-1.58-0.77-3.34-1.07-5.09-1.07c-0.15,0-0.31,0-0.46,0.01c-3.33,0.1-4.37,2.7-7.33,3.56 c-2.29,0.67-5.73,2.14-5.96,6.62c-0.15,2.86,2.03,5.9,2.05,7.08c0.02,1.26-1.31,1.38-1.84,1.38c-0.13,0-0.21-0.01-0.21-0.01 c0.85,2.3,2.29,2.68,3.3,2.68c0.38,0,0.69-0.05,0.9-0.08c0,0,0.33,1.37,1.64,2.37c1.26,0.96,2.4,1.15,3.08,1.15 c0.41,0,0.66-0.07,0.66-0.07s0.72,1.75,4,2.12c0.24,0.03,0.48,0.04,0.71,0.04c2.01,0,3.32-0.98,3.32-0.98 c0.55,0.78,1.35,1.17,2.21,1.17c0.6,0,1.23-0.19,1.82-0.58c0,0-1.78-2.44,0.97-4.03c3.14-1.82,4.57-3.12,5.28-4.27 c1.59-2.58,0.99-4.52-0.19-6.8C80.73,17.45,82.49,16.63,82.09,13.94z" fill="#312D2D"/>
  <g id="hairHighlights">
    <radialGradient id="SVGID_1_" cx="102.1934" cy="24.7855" gradientTransform="matrix(0.2628 -0.9648 -0.8041 -0.2191 67.4726 127.1279)" gradientUnits="userSpaceOnUse" r="7.6064">
      <stop offset="0.7247" stop-color="#454140" stop-opacity="0"/>
      <stop offset="1" stop-color="#454140"/>
    </radialGradient>
    <path d="M75.7,28.43c-0.31,0.19-5.87-5.25-5.9-8.84c-0.01-0.72,0.01-1.46,0.23-2.15 c0.16-0.52,0.4-1.18,0.9-1.43c5.82-2.86,8.44,2.21,8.44,2.21C82.48,23.47,78.63,26.61,75.7,28.43z" fill="url(#SVGID_1_)"/>
    <radialGradient id="SVGID_2_" cx="86.0337" cy="48.1229" gradientTransform="matrix(0.4964 0.8681 0.7235 -0.4137 -12.0326 -31.2956)" gradientUnits="userSpaceOnUse" r="11.7488">
      <stop offset="0.7247" stop-color="#454140" stop-opacity="0"/>
      <stop offset="1" stop-color="#454140"/>
    </radialGradient>
    <path d="M61.33,25.18c0.07-0.31,6.45-0.78,8.68,1.42c0.45,0.44,0.89,0.91,1.19,1.47 c0.22,0.42,0.51,0.96,0.35,1.42c-1.82,5.35-6.93,4.09-6.93,4.09C59.39,32.66,60.65,28.11,61.33,25.18z" fill="url(#SVGID_2_)"/>
    <radialGradient id="SVGID_3_" cx="64.0217" cy="22.1507" gradientTransform="matrix(0.0746 -0.9972 0.8311 0.0622 40.8345 84.6163)" gradientUnits="userSpaceOnUse" r="11.6605">
      <stop offset="0.7969" stop-color="#454140" stop-opacity="0"/>
      <stop offset="1" stop-color="#454140"/>
    </radialGradient>
    <path d="M66.13,25.07c-2.37-0.33-4.76-0.08-4.8,0.11c-0.45,1.92-1.14,4.54-0.08,6.37 c-0.89,0.16-1.41-0.02-1.41-0.02c-0.34-0.09-0.64-0.14-0.93-0.26c-4.23-1.71-3.43-6.03-2.78-8.82c0.07-0.32,7-0.39,9.28,1.85 C65.66,24.54,65.91,24.8,66.13,25.07z" fill="url(#SVGID_3_)"/>
    <radialGradient id="SVGID_4_" cx="102.5108" cy="22.0988" gradientTransform="matrix(-0.2628 -0.9648 0.8041 -0.2191 68.8769 124.2074)" gradientUnits="userSpaceOnUse" r="10.835">
      <stop offset="0.7247" stop-color="#454140" stop-opacity="0"/>
      <stop offset="1" stop-color="#454140"/>
    </radialGradient>
    <path d="M57.39,26.88c0.31,0.19,5.28-8.28,5.32-11.87c0.01-0.72-0.01-1.46-0.23-2.15 c-0.16-0.52-0.41-1.17-0.9-1.43c-5.42-2.89-8.84,2.14-8.84,2.14C49.52,18.7,54.46,25.06,57.39,26.88z" fill="url(#SVGID_4_)"/>
    <radialGradient id="SVGID_5_" cx="100.0102" cy="12.495" gradientTransform="matrix(-0.494 0.8695 -0.645 -0.3665 136.9109 -68.5425)" gradientUnits="userSpaceOnUse" r="3.4502">
      <stop offset="0.3031" stop-color="#454140"/>
      <stop offset="1" stop-color="#454140" stop-opacity="0"/>
    </radialGradient>
    <path d="M79.37,18.22c3.51-1.62,2.7-4.05,2.72-4.28c-0.98,0.65-1.96,0.57-2.39,0.36 c-1.35-0.65-2.46-2.58-2.46-2.58S74.93,18.22,79.37,18.22z" fill="url(#SVGID_5_)"/>
    <radialGradient id="SVGID_6_" cx="112.841" cy="33.3971" gradientTransform="matrix(0.8156 0.5786 0.4292 -0.6051 -53.5453 -20.4501)" gradientUnits="userSpaceOnUse" r="2.4718">
      <stop offset="0.3031" stop-color="#454140"/>
      <stop offset="1" stop-color="#454140" stop-opacity="0"/>
    </radialGradient>
    <path d="M54,26.98c-2.11,0.01-2.27-1.38-2.33-1.48c0.63,0.09,1.27-0.16,1.6-0.37 c1.1-0.69-0.18-2.87-0.18-2.87S57.86,26.02,54,26.98z" fill="url(#SVGID_6_)"/>
    <radialGradient id="SVGID_7_" cx="133.0377" cy="53.1267" gradientTransform="matrix(-0.9935 -0.1137 0.0843 -0.737 201.3657 85.7498)" gradientUnits="userSpaceOnUse" r="3.0095">
      <stop offset="0.3031" stop-color="#454140"/>
      <stop offset="1" stop-color="#454140" stop-opacity="0"/>
    </radialGradient>
    <path d="M70.59,32.87c1.56,1.41,2.61,0.49,2.72,0.45c-0.59-0.92-0.68-1.7-0.44-2.49 c0.38-1.24,2.43-2.15,2.43-2.15S68.36,29.58,70.59,32.87z" fill="url(#SVGID_7_)"/>
  </g>
  <ellipse cx="66.89" cy="12.67" fill="#1976D2" rx="8.66" ry="10.64" transform="matrix(0.0682 -0.9977 0.9977 0.0682 49.6907 78.5461)"/>
  <radialGradient id="SVGID_8_" cx="67.3529" cy="118.001" gradientTransform="matrix(1 0 0 -1 0 130)" gradientUnits="userSpaceOnUse" r="15.401">
    <stop offset="0.1701" stop-color="#42A5F5"/>
    <stop offset="0.4571" stop-color="#3798EB"/>
    <stop offset="0.9831" stop-color="#1976D2"/>
  </radialGradient>
  <path d="M74.48,10.83c4.85,5.52,3.59,11.46-0.08,16.19c-3.91,5.05-13.87,3.1-18.13-1.86 s-3.3-11.37,1.28-15.3S70.16,5.91,74.48,10.83z" fill="url(#SVGID_8_)"/>
  <ellipse cx="66.79" cy="13.28" fill="#0665B2" rx="1.21" ry="1.4" transform="matrix(0.1791 -0.9838 0.9838 0.1791 41.7556 76.6122)"/>
  <path d="M37.38,37.86l4.53-8.74l-6.84-3.6l-5.85,11.29c-0.81,1.56-0.81,3.42,0,4.98l0,0 c1.04,2.01,2.95,3.43,5.17,3.85l20.62,3.89l1.38-9.78L37.38,37.86z" fill="#ED6D23"/>
  <radialGradient id="SVGID_9_" cx="54.6943" cy="54.9199" gradientUnits="userSpaceOnUse" r="17.4317">
    <stop offset="0.3637" stop-color="#F78C1F"/>
    <stop offset="0.6778" stop-color="#F37F20"/>
    <stop offset="1" stop-color="#ED6D23"/>
  </radialGradient>
  <path d="M67.22,37.39c-0.62-1.38-1.48-2.3-2.49-2.66l-5.94-1.92c-4.08-1.47-8.32,2.59-9.67,5.9 c-3.44,6.2-6.67,14.92-9.58,25.91c-0.39,1.29-0.25,2.66,0.39,3.85c0.64,1.2,1.71,2.07,3.01,2.46c0.01,0,0.01,0,0.02,0 c1.83,0.48,7.31,1.6,11.92,1.6c2.37,0,4.52-0.3,5.81-1.13c0.75-0.48,1.2-1.11,1.33-1.92c0.95-9.05,2.25-16.65,5.5-24.31 C68.42,42.97,68.29,39.77,67.22,37.39z" fill="url(#SVGID_9_)"/>
  <path d="M67.88,43.98l-15.42-9.69c0,0,2.75-1.86,3.68-1.81 c0.94,0.05,11.75,7.16,12.05,7.56C68.5,40.43,67.88,43.98,67.88,43.98z" enable-background="new " fill="#212121" opacity="0.4"/>
  <polygon fill="#7C7D7D" points="95.39,60.6 96.68,58.74 46.65,24.02 44.92,26.53 "/>
  <path d="M44.92,26.53l1.73-2.51L31.48,13.61c-0.69-0.47-1.64-0.3-2.11,0.39c-0.48,0.69-0.3,1.65,0.39,2.12 L44.92,26.53z" fill="#504F4F"/>
  <path id="tone_1_" d="M46.73,21.82c-0.33-0.49-0.91-0.74-1.49-0.63c-0.6,0.11-1,0.62-1.22,0.97 c-0.03,0.04-0.25,0.33-0.42,0.7c-0.53,0.08-1.07,0.21-1.39,0.31l-3.08,1.38c-0.18,0.08-0.29,0.25-0.3,0.44l-0.08,2.12 c0,0.06,0.01,0.11,0.02,0.16c0.18,0.64,1.46,1.5,2.1,1.76c0.16,0.06,0.36,0.13,0.56,0.13c0.12,0,0.24-0.02,0.36-0.09 c0.21-0.11,0.29-0.29,0.69-1.23c0.2-0.46,0.56-1.31,0.63-1.42c0.95-0.53,2-0.72,2.07-0.74c0.1-0.03,0.2-0.08,0.29-0.15 c0.22-0.11,0.3-0.32,0.3-0.34c0.09-0.16,0.15-0.35,0.17-0.5l0.09-0.27c0.26-0.77,0.76-1.39,0.8-1.44 C47.03,22.67,46.99,22.21,46.73,21.82z" fill="#EDBD82"/>
  <g id="hand">
    <linearGradient id="SVGID_10_" gradientUnits="userSpaceOnUse" x1="39.888" x2="37.0973" y1="16.3996" y2="23.9345">
      <stop offset="0.35" stop-color="#F9DDBD"/>
      <stop offset="1" stop-color="#FFD29C"/>
    </linearGradient>
    <path d="M44.06,17.72c-0.92-0.79-1.2,0.07-1.8-0.22s-0.31-0.69-0.86-0.91 c-0.91-0.36-1.25,0.22-1.73,0.04c-0.5-0.18-0.25-0.54-0.94-0.69c-0.78-0.17-0.97,0.4-1.51,0.16c-0.53-0.25-0.45-0.45-1.02-0.58 c-0.61-0.14-1.07,0.01-1.66,0.88c-1.56,2.29-2.42,7.02-2.42,7.02l6.77,3.45c0,0,4.35-5.42,4.91-6.32 C44.35,19.66,44.99,18.52,44.06,17.72z" fill="url(#SVGID_10_)"/>
  </g>
  <path d="M59.27,40.58c0,2.8-2.1,4.87-4.2,5.33c-0.08,0.06-1.2,0.08-1.37,0.06l-23.24-0.8 c-1.14,0.08-2.29-0.3-3.18-1.09c-1.35-1.18-1.84-3.05-1.26-4.75l5.46-16.88c0.04-0.14,0.14-0.25,0.27-0.3 c0.13-0.05,0.28-0.06,0.41,0l7.63,3.52c0.24,0.11,0.35,0.38,0.26,0.62l-3.5,9.8l17.14-0.9c0.03-0.01,0.1-0.01,0.18-0.01 c0.35-0.02,1.03-0.01,1.09,0.04c1.51,0.28,3.03,1.38,3.79,3.02C59.08,38.93,59.27,39.72,59.27,40.58z" fill="#F78C1F"/>
  <path d="M58.75,38.24l-4.88-3.06c0.35-0.02,1.03-0.01,1.09,0.04 C56.47,35.5,57.99,36.6,58.75,38.24z" enable-background="new " fill="#212121" opacity="0.4"/>
</svg>

<svg viewBox="0 0 128 128" xmlns="http://www.w3.org/2000/svg">
  <defs>
    <radialGradient id="SVGID_8_" cx="67.3529" cy="-11.999" gradientTransform="matrix(1 0 0 -1 0 0)" gradientUnits="userSpaceOnUse" r="15.401">
      <stop offset="0.1701" stop-color="#42A5F5"/>
      <stop offset="0.4571" stop-color="#3798EB"/>
      <stop offset="0.9831" stop-color="#1976D2"/>
    </radialGradient>
    <radialGradient id="SVGID_9_" cx="54.6943" cy="54.9199" gradientUnits="userSpaceOnUse" r="17.4317">
      <stop offset="0.3637" stop-color="#F78C1F"/>
      <stop offset="0.6778" stop-color="#F37F20"/>
      <stop offset="1" stop-color="#ED6D23"/>
    </radialGradient>
    <radialGradient id="SVGID_1_" cx="-2.729691" cy="-93.416699" gradientTransform="matrix(0.2628 -0.9648 -0.8041 -0.2191 0 0)" gradientUnits="userSpaceOnUse" r="7.6064">
      <stop offset="0.7247" stop-color="#454140" stop-opacity="0"/>
      <stop offset="1" stop-color="#454140"/>
    </radialGradient>
    <radialGradient id="SVGID_2_" cx="52.893281" cy="54.229747" gradientTransform="matrix(0.4964 0.8681 0.7235 -0.4137 0 0)" gradientUnits="userSpaceOnUse" r="11.7488">
      <stop offset="0.7247" stop-color="#454140" stop-opacity="0"/>
      <stop offset="1" stop-color="#454140"/>
    </radialGradient>
    <radialGradient id="SVGID_3_" cx="-17.312162" cy="78.584349" gradientTransform="matrix(0.0746 -0.9972 0.8311 0.0622 0 0)" gradientUnits="userSpaceOnUse" r="11.6605">
      <stop offset="0.7969" stop-color="#454140" stop-opacity="0"/>
      <stop offset="1" stop-color="#454140"/>
    </radialGradient>
    <radialGradient id="SVGID_4_" cx="-35.441595" cy="62.669638" gradientTransform="matrix(-0.2628 -0.9648 0.8041 -0.2191 0 0)" gradientUnits="userSpaceOnUse" r="10.835">
      <stop offset="0.7247" stop-color="#454140" stop-opacity="0"/>
      <stop offset="1" stop-color="#454140"/>
    </radialGradient>
    <radialGradient id="SVGID_5_" cx="-27.217853" cy="-102.32708" gradientTransform="matrix(-0.494 0.8695 -0.645 -0.3665 0 0)" gradientUnits="userSpaceOnUse" r="3.4502">
      <stop offset="0.3031" stop-color="#454140"/>
      <stop offset="1" stop-color="#454140" stop-opacity="0"/>
    </radialGradient>
    <radialGradient id="SVGID_6_" cx="57.334922" cy="14.11811" gradientTransform="matrix(0.8156 0.5786 0.4292 -0.6051 0 0)" gradientUnits="userSpaceOnUse" r="2.4718">
      <stop offset="0.3031" stop-color="#454140"/>
      <stop offset="1" stop-color="#454140" stop-opacity="0"/>
    </radialGradient>
    <radialGradient id="SVGID_7_" cx="-76.771415" cy="-30.854987" gradientTransform="matrix(-0.9935 -0.1137 0.0843 -0.737 0 0)" gradientUnits="userSpaceOnUse" r="3.0095">
      <stop offset="0.3031" stop-color="#454140"/>
      <stop offset="1" stop-color="#454140" stop-opacity="0"/>
    </radialGradient>
    <linearGradient id="SVGID_10_" gradientUnits="userSpaceOnUse" x1="39.888" x2="37.0973" y1="16.3996" y2="23.9345">
      <stop offset="0.35" stop-color="#F9DDBD"/>
      <stop offset="1" stop-color="#FFD29C"/>
    </linearGradient>
  </defs>
  <path id="tone" d="M41.86,22.42 L39.12,20.72 L40.66,18.22 C40.66,18.22 44.58,19.98 44.91,20.62 C45.22,21.25 44.5,22.12 44.5,22.12 C43.54,23.49 42.73,22.95 41.86,22.42 Z" fill="#EDBD82"/>
  <path d="M63.39,88.82 C62.34,87.93 61.65,86.69 61.46,85.33 L59.88,74.15 C61.16,70.48 59.31,59.79 50.64,59.79 C49.53,59.79 48.3,59.97 46.96,60.36 C44.79,60.99 42.12,68.15 42.12,68.15 L50.56,93.94 C50.78,94.76 51.17,95.54 51.72,96.25 C52.51,97.25 53.54,97.96 54.66,98.36 L76.42,109.85 L80.09,102.85 L63.39,88.82 Z" fill="#616161"/>
  <path d="M84.35,102.44 L81.93,100.81 C80.96,100.15 79.54,100.02 78.52,100.02 C77.8,100.02 77.29,100.09 77.29,100.09 L73.21,106.11 L71.33,112.74 C70.96,114.4 71.63,116.12 73.03,117.09 L74.12,117.83 C74.3,117.95 74.5,118.01 74.71,118.01 C75.04,118.01 75.37,117.85 75.57,117.55 L84.67,104.1 C85.04,103.55 84.9,102.81 84.35,102.44 Z" fill="#325599"/>
  <path d="M41.2,62.28 L36.48,84.54 C35.71,88.15 35.57,91.87 36.06,95.54 L39.01,117.72 L46.34,117.7 C46.34,117.7 48.21,92.98 48.23,92.94 L54.49,73.96 L54.72,73.63 C56.65,71.58 57.43,66.7 57.43,66.7 L41.2,62.28 Z" fill="#7C7C7C"/>
  <path id="tone_2_" d="M68.27,28.42 L61.42,15.94 C61.32,15.76 61.11,15.66 60.91,15.69 C60.7,15.72 60.54,15.88 60.49,16.08 L56.07,36.87 C56.04,37 56.07,37.14 56.14,37.25 C56.21,37.36 56.33,37.44 56.46,37.47 L65.5,39.31 C65.53,39.32 65.57,39.32 65.6,39.32 C65.83,39.32 66.04,39.16 66.09,38.93 L68.32,28.78 C68.35,28.65 68.33,28.53 68.27,28.42 Z" fill="#EDBD82"/>
  <path d="M68.05,42.9 L53.63,33.48 C53.63,33.48 55.19,32.47 56.12,32.52 C57.06,32.57 68.21,41.51 68.21,41.51 L68.05,42.9 Z" fill="#212121" opacity="0.4"/>
  <path d="M44.92,26.53 L46.65,24.02 L31.48,13.61 C30.79,13.14 29.84,13.31 29.37,14 C28.89,14.69 29.07,15.65 29.76,16.12 L44.92,26.53 Z" fill="#2E2F2F"/>
  <path d="M96.68,58.74 C96.68,58.74 101.34,61.34 101.86,62.46 C102.24,63.29 102.31,66.23 102.1,68.11 C101.9,70 101,70.4 101,70.4 C101,70.4 99.42,71.45 97.72,71.72 C96.01,71.99 95.93,70.45 95.93,70.45 C95.93,70.45 95.58,67.64 95.75,66.72 C95.92,65.8 96.58,64.11 97.51,62.97 C97.93,62.46 97.25,62.02 97.25,62.02 L95.39,60.6 L96.68,58.74 Z" fill="#2E2F2F"/>
  <path d="M47.04,114.97 L39.2,114.97 L32.14,117.3 C30.43,117.97 29.3,119.62 29.29,121.45 L29.28,122.87 C29.28,123.49 29.78,124 30.4,124 L47.91,123.98 C48.62,123.98 49.2,123.4 49.2,122.69 L49.2,119.54 C49.21,117.4 47.04,114.97 47.04,114.97 Z" fill="#4568AD"/>
  <path d="M96.68,58.74 C96.68,58.74 101.34,61.34 101.86,62.46 C102.24,63.29 102.31,66.23 102.1,68.11 C101.9,70 101,70.4 101,70.4 C101,70.4 99.42,71.45 97.72,71.72 C96.01,71.99 95.93,70.45 95.93,70.45 C95.93,70.45 95.58,67.64 95.75,66.72 C95.92,65.8 96.58,64.11 97.51,62.97 C97.93,62.46 97.25,62.02 97.25,62.02 L95.39,60.6 L96.68,58.74 Z" fill="#504F4F"/>
  <path id="hair" d="M82.09,13.94 C82.09,13.94 81.39,14.45 80.5,14.45 C79.98,14.45 79.39,14.28 78.84,13.72 C78.12,12.99 77.47,12.21 76.95,11.33 C76.43,10.45 75.85,9.55 74.97,9.03 C74.6,8.81 74.29,8.74 73.99,8.74 C73.54,8.74 73.11,8.9 72.56,8.95 L72.47,8.95 C71.77,8.95 71.14,8.26 70.51,7.93 C68.93,7.16 67.17,6.86 65.42,6.86 C65.27,6.86 65.11,6.86 64.96,6.87 C61.63,6.97 60.59,9.57 57.63,10.43 C55.34,11.1 51.9,12.57 51.67,17.05 C51.52,19.91 53.7,22.95 53.72,24.13 C53.74,25.39 52.41,25.51 51.88,25.51 C51.75,25.51 51.67,25.5 51.67,25.5 C52.52,27.8 53.96,28.18 54.97,28.18 C55.35,28.18 55.66,28.13 55.87,28.1 C55.87,28.1 56.2,29.47 57.51,30.47 C58.77,31.43 59.91,31.62 60.59,31.62 C61,31.62 61.25,31.55 61.25,31.55 C61.25,31.55 61.97,33.3 65.25,33.67 C65.49,33.7 65.73,33.71 65.96,33.71 C67.97,33.71 69.28,32.73 69.28,32.73 C69.83,33.51 70.63,33.9 71.49,33.9 C72.09,33.9 72.72,33.71 73.31,33.32 C73.31,33.32 71.53,30.88 74.28,29.29 C77.42,27.47 78.85,26.17 79.56,25.02 C81.15,22.44 80.55,20.5 79.37,18.22 C80.73,17.45 82.49,16.63 82.09,13.94 Z" fill="#312D2D"/>
  <path d="M75.7,28.43 C75.39,28.62 69.83,23.18 69.8,19.59 C69.79,18.87 69.81,18.13 70.03,17.44 C70.19,16.92 70.43,16.26 70.93,16.01 C76.75,13.15 79.37,18.22 79.37,18.22 C82.48,23.47 78.63,26.61 75.7,28.43 Z" fill="url(#SVGID_1_)"/>
  <path d="M61.33,25.18 C61.4,24.87 67.78,24.4 70.01,26.6 C70.46,27.04 70.9,27.51 71.2,28.07 C71.42,28.49 71.71,29.03 71.55,29.49 C69.73,34.84 64.62,33.58 64.62,33.58 C59.39,32.66 60.65,28.11 61.33,25.18 Z" fill="url(#SVGID_2_)"/>
  <path d="M66.13,25.07 C63.76,24.74 61.37,24.99 61.33,25.18 C60.88,27.1 60.19,29.72 61.25,31.55 C60.36,31.71 59.84,31.53 59.84,31.53 C59.5,31.44 59.2,31.39 58.91,31.27 C54.68,29.56 55.48,25.24 56.13,22.45 C56.2,22.13 63.13,22.06 65.41,24.3 C65.66,24.54 65.91,24.8 66.13,25.07 Z" fill="url(#SVGID_3_)"/>
  <path d="M57.39,26.88 C57.7,27.07 62.67,18.6 62.71,15.01 C62.72,14.29 62.7,13.55 62.48,12.86 C62.32,12.34 62.07,11.69 61.58,11.43 C56.16,8.54 52.74,13.57 52.74,13.57 C49.52,18.7 54.46,25.06 57.39,26.88 Z" fill="url(#SVGID_4_)"/>
  <path d="M79.37,18.22 C82.88,16.6 82.07,14.17 82.09,13.94 C81.11,14.59 80.13,14.51 79.7,14.3 C78.35,13.65 77.24,11.72 77.24,11.72 C77.24,11.72 74.93,18.22 79.37,18.22 Z" fill="url(#SVGID_5_)"/>
  <path d="M54,26.98 C51.89,26.99 51.73,25.6 51.67,25.5 C52.3,25.59 52.94,25.34 53.27,25.13 C54.37,24.44 53.09,22.26 53.09,22.26 C53.09,22.26 57.86,26.02 54,26.98 Z" fill="url(#SVGID_6_)"/>
  <path d="M70.59,32.87 C72.15,34.28 73.2,33.36 73.31,33.32 C72.72,32.4 72.63,31.62 72.87,30.83 C73.25,29.59 75.3,28.68 75.3,28.68 C75.3,28.68 68.36,29.58 70.59,32.87 Z" fill="url(#SVGID_7_)"/>
  <path d="M67.484,4.034 C73.347,4.435 77.835,8.628 77.509,13.4 C77.183,18.171 72.166,21.715 66.303,21.314 C60.44,20.913 55.952,16.72 56.278,11.948 C56.604,7.177 61.621,3.633 67.484,4.034 Z" fill="#1976D2"/>
  <path d="M74.48,10.83 C79.33,16.35 78.07,22.29 74.4,27.02 C70.49,32.07 60.53,30.12 56.27,25.16 C52.01,20.2 52.97,13.79 57.55,9.86 C62.13,5.93 70.16,5.91 74.48,10.83 Z" fill="url(#SVGID_8_)"/>
  <path d="M66.999,12.092 C67.76,12.231 68.28,12.876 68.16,13.533 C68.04,14.191 67.327,14.612 66.566,14.473 C65.805,14.335 65.286,13.689 65.405,13.032 C65.525,12.374 66.239,11.954 66.999,12.092 Z" fill="#0665B2"/>
  <path d="M37.38,37.86 L41.91,29.12 L35.07,25.52 L29.22,36.81 C28.41,38.37 28.41,40.23 29.22,41.79 L29.22,41.79 C30.26,43.8 32.17,45.22 34.39,45.64 L55.01,49.53 L56.39,39.75 L37.38,37.86 Z" fill="#ED6D23"/>
  <path d="M67.22,37.39 C66.6,36.01 65.74,35.09 64.73,34.73 L58.79,32.81 C54.71,31.34 50.47,35.4 49.12,38.71 C45.68,44.91 42.45,53.63 39.54,64.62 C39.15,65.91 39.29,67.28 39.93,68.47 C40.57,69.67 41.64,70.54 42.94,70.93 C42.95,70.93 42.95,70.93 42.96,70.93 C44.79,71.41 50.27,72.53 54.88,72.53 C57.25,72.53 59.4,72.23 60.69,71.4 C61.44,70.92 61.89,70.29 62.02,69.48 C62.97,60.43 64.27,52.83 67.52,45.17 C68.42,42.97 68.29,39.77 67.22,37.39 Z" fill="url(#SVGID_9_)"/>
  <path d="M67.88,43.98 L52.46,34.29 C52.46,34.29 55.21,32.43 56.14,32.48 C57.08,32.53 67.89,39.64 68.19,40.04 C68.5,40.43 67.88,43.98 67.88,43.98 Z" fill="#212121" opacity="0.4"/>
  <path d="M95.39,60.6 L96.68,58.74 L46.65,24.02 L44.92,26.53 Z" fill="#7C7D7D"/>
  <path d="M44.92,26.53 L46.65,24.02 L31.48,13.61 C30.79,13.14 29.84,13.31 29.37,14 C28.89,14.69 29.07,15.65 29.76,16.12 L44.92,26.53 Z" fill="#504F4F"/>
  <path id="tone_1_" d="M46.73,21.82 C46.4,21.33 45.82,21.08 45.24,21.19 C44.64,21.3 44.24,21.81 44.02,22.16 C43.99,22.2 43.77,22.49 43.6,22.86 C43.07,22.94 42.53,23.07 42.21,23.17 L39.13,24.55 C38.95,24.63 38.84,24.8 38.83,24.99 L38.75,27.11 C38.75,27.17 38.76,27.22 38.77,27.27 C38.95,27.91 40.23,28.77 40.87,29.03 C41.03,29.09 41.23,29.16 41.43,29.16 C41.55,29.16 41.67,29.14 41.79,29.07 C42,28.96 42.08,28.78 42.48,27.84 C42.68,27.38 43.04,26.53 43.11,26.42 C44.06,25.89 45.11,25.7 45.18,25.68 C45.28,25.65 45.38,25.6 45.47,25.53 C45.69,25.42 45.77,25.21 45.77,25.19 C45.86,25.03 45.92,24.84 45.94,24.69 L46.03,24.42 C46.29,23.65 46.79,23.03 46.83,22.98 C47.03,22.67 46.99,22.21 46.73,21.82 Z" fill="#EDBD82"/>
  <path d="M44.06,17.72 C43.14,16.93 42.86,17.79 42.26,17.5 C41.66,17.21 41.95,16.81 41.4,16.59 C40.49,16.23 40.15,16.81 39.67,16.63 C39.17,16.45 39.42,16.09 38.73,15.94 C37.95,15.77 37.76,16.34 37.22,16.1 C36.69,15.85 36.77,15.65 36.2,15.52 C35.59,15.38 35.13,15.53 34.54,16.4 C32.98,18.69 32.12,23.42 32.12,23.42 L38.89,26.87 C38.89,26.87 43.24,21.45 43.8,20.55 C44.35,19.66 44.99,18.52 44.06,17.72 Z" fill="url(#SVGID_10_)"/>
  <path d="M59.27,40.58 C59.27,43.38 57.17,45.45 55.07,45.91 C54.99,45.97 53.87,45.99 53.7,45.97 L30.46,45.17 C29.32,45.25 28.17,44.87 27.28,44.08 C25.93,42.9 25.44,41.03 26.02,39.33 L31.48,22.45 C31.52,22.31 31.62,22.2 31.75,22.15 C31.88,22.1 32.03,22.09 32.16,22.15 L39.79,25.67 C40.03,25.78 40.14,26.05 40.05,26.29 L36.55,36.09 L53.69,35.19 C53.72,35.18 53.79,35.18 53.87,35.18 C54.22,35.16 54.9,35.17 54.96,35.22 C56.47,35.5 57.99,36.6 58.75,38.24 C59.08,38.93 59.27,39.72 59.27,40.58 Z" fill="#F78C1F"/>
  <path d="M58.75,38.24 L53.87,35.18 C54.22,35.16 54.9,35.17 54.96,35.22 C56.47,35.5 57.99,36.6 58.75,38.24 Z" fill="#212121" opacity="0.4"/>
</svg>
